packages/icons/svg/Fill/thermometer-plus.svg

<svg fill="none" height="24" viewBox="0 0 24 24" width="24" xmlns="http://www.w3.org/2000/svg"><path clip-rule="evenodd" d="m15 9.54007v-4.54c0-.267-.103-.513-.287-.694-.199-.204-.446-.306-.713-.306-.552 0-1 .449-1 1v4.54zm-1 12.45993c-2.757 0-5-2.243-5-5 0-1.58.754-3.063 2-3.997v-8.003c0-1.654 1.346-3 3-3 .812 0 1.566.317 2.127.892.557.542.873 1.297.873 2.108v8.003c1.246.934 2 2.417 2 3.997 0 2.757-2.243 5-5 5zm-9.99997-15h-1.00001c-.55 0-1-.45-1-1s.45-1 1-1h1.00001v-1.00007c0-.55.45-1 1-1s1 .45 1 1v1.00007h.99999c.55 0 1 .45 1 1s-.45 1-1 1h-.99999v.99994c0 .55-.45 1-1 1s-1-.45-1-1z" fill="#6b7280" fill-rule="evenodd"/></svg>

<svg width="24" height="24" viewBox="0 0 24 24" fill="none" xmlns="http://www.w3.org/2000/svg">
<g id="Icon/Fill/thermometer-plus">
<path id="Mask" fill-rule="evenodd" clip-rule="evenodd" d="M15 9.54V5C15 4.733 14.897 4.487 14.713 4.306C14.514 4.102 14.267 4 14 4C13.448 4 13 4.449 13 5V9.54H15ZM14 22C11.243 22 9 19.757 9 17C9 15.42 9.754 13.937 11 13.003V5C11 3.346 12.346 2 14 2C14.812 2 15.566 2.317 16.127 2.892C16.684 3.434 17 4.189 17 5V13.003C18.246 13.937 19 15.42 19 17C19 19.757 16.757 22 14 22ZM4 7H3C2.45 7 2 6.55 2 6C2 5.45 2.45 5 3 5H4V4C4 3.45 4.45 3 5 3C5.55 3 6 3.45 6 4V5H7C7.55 5 8 5.45 8 6C8 6.55 7.55 7 7 7H6V8C6 8.55 5.55 9 5 9C4.45 9 4 8.55 4 8V7Z" fill="#000000"/>
</g>
</svg>
